X:1
T:Title
%%score { ( 1 4 ) | ( 2 3 ) }
L:1/8
Q:1/4=94
M:2/4
K:G
V:1 treble nm="Grand Piano"
V:4 treble 
V:2 bass 
V:3 bass 
V:1
 [DGB]3 [CFA] | [DAc]3 [DGB] | [CFA][DG] [A,DF][CE] | [CEA] [Ac]2 [CEA] | [B,DG][GB] [CFA][DF] | %5
w: J.~M.~Whyte *|||||
 [B,DG]4 | [DGB]3 [CFA] | [DAc]3 [DGB] | [CFA][DG] [A,DF][CE] | [CEA] [Ac]2 [CEA] | %10
w: |||||
 [B,DG][GB] [CFA][DF] | [B,DG]4 | [DFA]3 [D=F^G] | .[FA]2 z2 | [DAc][FA] [A,DF]D | G .B3 | %16
w: ||||||
 [FA]3 [=F^G] | [FA] c2 [DAc] | [DAc][FA] [A,DF]D | G .B3 | d3 d | dd [Fc][GB] | [FA]G FE | %23
w: |||||||
 [EA] [Ac]2 [CEA] | [B,DG][GB] [CFA][DF] |[M:3/8] [B,DG]2 z |[M:1/8] B |[M:2/4] c4 | [DF]4 | d4 | %30
w: |||||||
 G4 | [DG]B Bd | [Bd] c2 [DFA] | [DGB]2 [DGB]2 | [Ac]3 [Ac] | [Ac][GB] [Ac]d | [DGB]3 [B,D] | %37
w: |||||||
 [B,DG][GB] [DGB][DG] | [CFA]3 [CFA] | [CFA][DG] [CFA][GB] | [B,DG]3 [B,D] | [DG]A Bc | %42
w: |||||
 [DBd]e c[CFA] | [B,DG][B,D] D-[CDA] | [B,DG]4 |] %45
w: |||
V:2
 G,3 D, | D,3 G, | z B, D,C, | z E2 C, | z D z A, | G,,4 | G,3 D, | D,3 G, | z B, D,C, | z E2 C, | %10
 z D z A, | G,,4 | D,3 D, | z A2 D, | z C z[K:treble] C | [B,D] .[DG]3 | [D,D]3 [D,D] | z A2 D, | %18
 z C z[K:treble] C | [B,D] .[DG]3 | [G,B,G]3 [G,B,G] | [G,B,G][G,B,G][K:bass] [D,D][D,D] | %22
 [D,C][D,B,D] [D,A,D][D,C] | C E2 C, | z D z A, |[M:3/8] G,,2 z |[M:1/8][K:treble] G | %27
[M:2/4] A4[K:bass] | D,D, D,[K:treble]B | B4 | [G,D]G, G,G, | z[K:treble] G GB | z A2[K:bass] D, | %33
 G,2 G,2 | [D,D]3 [D,D] | [D,D]2 z[K:treble] B | G,3 G, | z D[K:bass] z B, | D,3 D, | z B, z D | %40
 G,3 G, | z[K:treble] F GA | G,c A[K:bass]D, | D,D, D,D, | G,,4 |] %45
V:3
 x4 | x4 | D,2 z2 | C,4 | D,2 D,2 | x4 | x4 | x4 | D,2 z2 | C,4 | D,2 D,2 | x4 | x4 | D,4 | %14
 D,2 D,2[K:treble] | G,4 | x4 | [D,D]4 | D,2 D,2[K:treble] | G,4 | x4 | x2[K:bass] x2 | x4 | C,4 | %24
 D,2 D,2 |[M:3/8] x3 |[M:1/8][K:treble] x |[M:2/4] z[K:bass] D, D,D, | x3[K:treble] x | %29
 z G, G,[G,DG] | x4 | G,2[K:treble] [G,D]2 | D,4[K:bass] | x4 | x4 | z2 [D,D]2[K:treble] | x4 | %37
 G,2[K:bass] G,2 | x4 | D,2 D,2 | x4 | G,2[K:treble] [G,D]2 | x3[K:bass] x | x4 | x4 |] %45
V:4
 x4 | x4 | x4 | x4 | x4 | x4 | x4 | x4 | x4 | x4 | x4 | x4 | x4 | D- [Dc]2 [DAc] | x4 | x4 | x4 | %17
 x4 | x4 | x4 | x4 | x4 | x4 | x4 | x4 |[M:3/8] x3 |[M:1/8] x |[M:2/4] z D D[CFA] | A,A, A,d | %29
 z B, B,B | z D DD | x4 | D4 | x4 | x4 | x4 | x4 | x4 | x4 | x4 | x4 | x4 | x4 | z2 .[A,F]2 | x4 |] %45

